; generated by Slic3r 0.9.9 on 2013-06-16 at 13:02:57

; layer_height = 0.3
; perimeters = 2
; top_solid_layers = 3
; bottom_solid_layers = 3
; fill_density = 0.4
; perimeter_speed = 30
; infill_speed = 60
; travel_speed = 130
; nozzle_diameter = 0.5
; filament_diameter = 1.75
; extrusion_multiplier = 1
; perimeters extrusion width = 0.70mm
; infill extrusion width = 0.70mm
; solid infill extrusion width = 0.70mm
; top infill extrusion width = 0.70mm

G21 ; set units to millimeters
M107
M190 S55 ; wait for bed temperature to be reached
M104 S205 ; set temperature
G28 ; home all axes
M109 S205 ; wait for temperature to be reached
G90 ; use absolute coordinates
G92 E0
M82 ; use absolute distances for extrusion
G1 F1800.000 E-2.00000
G1 Z0.800
G92 E0
G1 X96.499 Y55.480 F7800.000
G1 Z0.300
G1 F1800.000 E2.00000
G1 X96.969 Y54.820 F540.000 E2.06614
G1 X97.329 Y54.410 E2.11068
G1 X97.919 Y53.860 E2.17653
G1 X98.349 Y53.540 E2.22028
G1 X98.799 Y53.250 E2.26399
G1 X99.529 Y52.880 E2.33079
G1 X100.029 Y52.690 E2.37446
G1 X100.549 Y52.540 E2.41864
G1 X101.339 Y52.390 E2.48428
G1 X101.879 Y52.350 E2.52848
G1 X108.119 Y52.350 E3.03787
G1 X108.659 Y52.390 E3.08207
G1 X109.189 Y52.480 E3.12596
G1 X109.709 Y52.610 E3.16971
G1 X110.469 Y52.880 E3.23555
G1 X110.959 Y53.120 E3.28009
G1 X111.429 Y53.390 E3.32434
G1 X112.079 Y53.860 E3.38982
G1 X112.479 Y54.220 E3.43375
G1 X113.029 Y54.820 E3.50019
G1 X113.349 Y55.250 E3.54395
G1 X113.629 Y55.710 E3.58791
G1 X113.879 Y56.190 E3.63209
G1 X114.089 Y56.690 E3.67636
G1 X114.259 Y57.200 E3.72024
G1 X114.379 Y57.720 E3.76381
G1 X114.429 Y57.990 E3.78622
G1 X114.489 Y58.520 E3.82977
G1 X114.499 Y58.790 E3.85182
G1 X115.679 Y96.780 E6.95454
G1 X115.679 Y110.000 E8.03373
G1 X115.599 Y111.050 E8.11969
G1 X115.499 Y111.610 E8.16613
G1 X115.349 Y112.220 E8.21741
G1 X115.249 Y112.520 E8.24322
G1 X114.889 Y113.360 E8.31782
G1 X114.569 Y113.960 E8.37333
G1 X114.379 Y114.250 E8.40164
G1 X113.799 Y115.010 E8.47968
G1 X113.559 Y115.280 E8.50917
G1 X113.039 Y115.770 E8.56749
G1 X112.759 Y115.990 E8.59656
G1 X112.279 Y116.350 E8.64554
G1 X111.689 Y116.710 E8.70196
G1 X111.079 Y117.000 E8.75710
G1 X110.549 Y117.210 E8.80364
G1 X109.969 Y117.400 E8.85346
G1 X109.679 Y117.470 E8.87781
G1 X108.819 Y117.600 E8.94882
G1 X108.179 Y117.640 E9.00116
G1 X101.969 Y117.650 E9.50810
G1 X100.989 Y117.580 E9.58831
G1 X100.399 Y117.490 E9.63703
G1 X99.759 Y117.330 E9.69088
G1 X99.449 Y117.220 E9.71773
G1 X98.619 Y116.880 E9.79095
G1 X98.069 Y116.590 E9.84171
G1 X97.809 Y116.420 E9.86707
G1 X97.099 Y115.900 E9.93891
G1 X96.659 Y115.510 E9.98691
G1 X96.249 Y115.080 E10.03541
G1 X95.899 Y114.660 E10.08004
G1 X95.719 Y114.410 E10.10518
G1 X95.369 Y113.890 E10.15635
G1 X95.219 Y113.620 E10.18157
G1 X95.079 Y113.340 E10.20712
G1 X94.739 Y112.530 E10.27883
G1 X94.639 Y112.230 E10.30465
G1 X94.489 Y111.620 E10.35593
G1 X94.429 Y111.310 E10.38170
G1 X94.359 Y110.720 E10.43020
G1 X94.319 Y109.990 E10.48988
G1 X94.319 Y96.790 E11.56744
G1 X95.499 Y58.790 E14.67097
G1 X95.509 Y58.520 E14.69303
G1 X95.569 Y57.990 E14.73657
G1 X95.739 Y57.200 E14.80254
G1 X96.009 Y56.430 E14.86914
G1 X96.239 Y55.950 E14.91259
G1 X96.451 Y55.565 E14.94843
G1 F1800.000 E12.94843
G1 Z0.800
G92 E0
G1 X106.868 Y59.982 F7800.000
G1 Z0.300
G1 F1800.000 E2.00000
G1 X106.868 Y96.982 F540.000 E5.02041
G1 X108.049 Y96.982 E5.11678
G1 X108.049 Y98.018 E5.20139
G1 X101.951 Y98.018 E5.69915
G1 X101.951 Y96.982 E5.78376
G1 X103.132 Y96.982 E5.88013
G1 X103.132 Y59.982 E8.90053
G1 X106.770 Y59.982 E9.19754
G1 X107.523 Y59.327 F7800.000
G1 X107.523 Y96.327 F378.000 E12.21795
G1 X108.013 Y96.327 E12.25794
G1 X108.204 Y96.352 E12.27373
G1 X108.365 Y96.419 E12.28793
G1 X108.504 Y96.526 E12.30226
G1 X108.611 Y96.665 E12.31659
G1 X108.678 Y96.826 E12.33083
G1 X108.703 Y97.018 E12.34663
G1 X108.703 Y109.979 E13.40465
G1 X108.678 Y110.173 E13.42066
G1 X108.611 Y110.335 E13.43493
G1 X108.504 Y110.474 E13.44921
G1 X108.365 Y110.580 E13.46350
G1 X108.204 Y110.647 E13.47776
G1 X108.010 Y110.673 E13.49377
G1 X107.621 Y110.673 E13.52545
G1 X107.427 Y110.647 E13.54150
G1 X107.265 Y110.580 E13.55577
G1 X107.126 Y110.474 E13.57005
G1 X107.020 Y110.335 E13.58433
G1 X106.953 Y110.173 E13.59860
G1 X106.927 Y109.979 E13.61464
G1 X106.927 Y98.673 E14.53757
G1 X103.023 Y98.673 E14.85630
G1 X103.023 Y109.979 E15.77922
G1 X102.997 Y110.173 E15.79527
G1 X102.930 Y110.335 E15.80954
G1 X102.824 Y110.474 E15.82382
G1 X102.685 Y110.580 E15.83810
G1 X102.523 Y110.647 E15.85237
G1 X102.329 Y110.673 E15.86842
G1 X101.990 Y110.673 E15.89601
G1 X101.796 Y110.647 E15.91203
G1 X101.635 Y110.580 E15.92629
G1 X101.496 Y110.474 E15.94057
G1 X101.389 Y110.335 E15.95486
G1 X101.322 Y110.173 E15.96912
G1 X101.297 Y109.979 E15.98513
G1 X101.297 Y97.018 E17.04316
G1 X101.322 Y96.826 E17.05896
G1 X101.389 Y96.665 E17.07320
G1 X101.496 Y96.526 E17.08753
G1 X101.635 Y96.419 E17.10186
G1 X101.796 Y96.352 E17.11606
G1 X101.987 Y96.327 E17.13184
G1 X102.477 Y96.327 E17.17184
G1 X102.477 Y59.327 E20.19225
G1 X107.425 Y59.327 E20.59611
G1 X107.196 Y59.894 F7800.000
G1 X106.394 Y60.456
G1 X105.466 Y60.456 F1080.000 E20.67197
G1 X106.394 Y61.384 E20.77924
G1 X106.394 Y62.311 E20.85508
G1 X104.539 Y60.456 E21.06962
G1 X103.612 Y60.456 E21.14546
G1 X106.394 Y63.238 E21.46724
G1 X106.394 Y64.166 E21.54309
G1 X103.606 Y61.378 E21.86552
G1 X103.606 Y62.305 E21.94136
G1 X106.394 Y65.093 E22.26379
G1 X106.394 Y66.020 E22.33963
G1 X103.606 Y63.233 E22.66206
G1 X103.606 Y64.160 E22.73791
G1 X106.394 Y66.948 E23.06034
G1 X106.394 Y67.875 E23.13618
G1 X103.606 Y65.087 E23.45861
G1 X103.606 Y66.015 E23.53445
G1 X106.394 Y68.802 E23.85688
G1 X106.394 Y69.730 E23.93272
G1 X103.606 Y66.942 E24.25516
G1 X103.606 Y67.869 E24.33100
G1 X106.394 Y70.657 E24.65343
G1 X106.394 Y71.584 E24.72927
G1 X103.606 Y68.797 E25.05170
G1 X103.606 Y69.724 E25.12754
G1 X106.394 Y72.512 E25.44998
G1 X106.394 Y73.439 E25.52582
G1 X103.606 Y70.651 E25.84825
G1 X103.606 Y71.578 E25.92409
G1 X106.394 Y74.366 E26.24652
G1 X106.394 Y75.294 E26.32236
G1 X103.606 Y72.506 E26.64479
G1 X103.606 Y73.433 E26.72064
G1 X106.394 Y76.221 E27.04307
G1 X106.394 Y77.148 E27.11891
G1 X103.606 Y74.360 E27.44134
G1 X103.606 Y75.288 E27.51718
G1 X106.394 Y78.076 E27.83961
G1 X106.394 Y79.003 E27.91546
G1 X103.606 Y76.215 E28.23789
G1 X103.606 Y77.142 E28.31373
G1 X106.394 Y79.930 E28.63616
G1 X106.394 Y80.858 E28.71200
G1 X103.606 Y78.070 E29.03443
G1 X103.606 Y78.997 E29.11027
G1 X106.394 Y81.785 E29.43271
G1 X106.394 Y82.712 E29.50855
G1 X103.606 Y79.924 E29.83098
G1 X103.606 Y80.852 E29.90682
G1 X106.394 Y83.639 E30.22925
G1 X106.394 Y84.567 E30.30509
G1 X103.606 Y81.779 E30.62753
G1 X103.606 Y82.706 E30.70337
G1 X106.394 Y85.494 E31.02580
G1 X106.394 Y86.421 E31.10164
G1 X103.606 Y83.634 E31.42407
G1 X103.606 Y84.561 E31.49991
G1 X106.394 Y87.349 E31.82234
G1 X106.394 Y88.276 E31.89819
G1 X103.606 Y85.488 E32.22062
G1 X103.606 Y86.416 E32.29646
G1 X106.394 Y89.203 E32.61889
G1 X106.394 Y90.131 E32.69473
G1 X103.606 Y87.343 E33.01716
G1 X103.606 Y88.270 E33.09300
G1 X106.394 Y91.058 E33.41544
G1 X106.394 Y91.985 E33.49128
G1 X103.606 Y89.198 E33.81371
G1 X103.606 Y90.125 E33.88955
G1 X106.394 Y92.913 E34.21198
G1 X106.394 Y93.840 E34.28782
G1 X103.606 Y91.052 E34.61026
G1 X103.606 Y91.980 E34.68610
G1 X106.394 Y94.767 E35.00853
G1 X106.394 Y95.695 E35.08437
G1 X103.606 Y92.907 E35.40680
G1 X103.606 Y93.834 E35.48264
G1 X106.394 Y96.622 E35.80507
G1 X106.388 Y97.544 E35.88046
G1 X103.606 Y94.762 E36.20226
G1 X103.606 Y95.689 E36.27810
G1 X105.461 Y97.544 E36.49263
G1 X104.534 Y97.544 E36.56847
G1 X103.606 Y96.616 E36.67575
G1 X103.606 Y97.544 E36.75161
G1 X102.850 Y98.500 F7800.000
G1 X102.160 Y110.483
G1 X102.147 Y109.823
G1 X102.173 Y108.281 F360.000 E36.96503
G1 X102.146 Y108.254 E36.97025
G1 X102.173 Y106.712 E37.18364
G1 X102.146 Y106.685 E37.18885
G1 X102.173 Y105.143 E37.40225
G1 X102.146 Y105.117 E37.40746
G1 X102.173 Y103.574 E37.62086
G1 X102.146 Y103.548 E37.62607
G1 X102.173 Y102.006 E37.83946
G1 X102.146 Y101.979 E37.84468
G1 X102.173 Y100.437 E38.05807
G1 X102.146 Y100.410 E38.06328
G1 X102.173 Y98.868 E38.27671
G1 X102.850 Y98.500 F7800.000
G1 X107.098 Y98.500
G1 X107.940 Y110.385
G1 X107.777 Y109.823
G1 X107.854 Y108.324 F360.000 E38.48538
G1 X107.777 Y108.247 E38.50045
G1 X107.854 Y106.748 E38.70910
G1 X107.777 Y106.671 E38.72416
G1 X107.854 Y105.172 E38.93281
G1 X107.777 Y105.095 E38.94787
G1 X107.854 Y103.596 E39.15652
G1 X107.777 Y103.519 E39.17159
G1 X107.854 Y102.020 E39.38024
G1 X107.777 Y101.943 E39.39530
G1 X107.854 Y100.444 E39.60395
G1 X107.777 Y100.367 E39.61902
G1 X107.853 Y98.868 E39.82769
M106 S255
M104 S190 ; set temperature
M140 S35 ; set bed temperature
G1 F1800.000 E37.82769
G1 Z1.100
G92 E0
G1 X108.049 Y98.018 F7800.000
G1 Z0.600
G1 F1800.000 E2.00000
G1 X101.951 Y98.018 F839.379 E2.49776
G1 X101.951 Y96.982 E2.58237
G1 X103.132 Y96.982 E2.67874
G1 X103.132 Y59.982 E5.69915
G1 X106.868 Y59.982 E6.00417
G1 X106.868 Y96.982 E9.02457
G1 X108.049 Y96.982 E9.12094
G1 X108.049 Y97.920 E9.19754
G1 X108.703 Y97.012 F7800.000
G1 X108.703 Y109.980 F600.000 E10.25618
G1 X108.678 Y110.174 E10.27212
G1 X108.611 Y110.335 E10.28636
G1 X108.504 Y110.474 E10.30066
G1 X108.365 Y110.580 E10.31497
G1 X108.204 Y110.647 E10.32921
G1 X108.011 Y110.673 E10.34515
G1 X107.621 Y110.673 E10.37691
G1 X107.427 Y110.647 E10.39296
G1 X107.265 Y110.580 E10.40723
G1 X107.126 Y110.474 E10.42151
G1 X107.020 Y110.335 E10.43579
G1 X106.953 Y110.173 E10.45006
G1 X106.927 Y109.979 E10.46610
G1 X106.927 Y98.673 E11.38903
G1 X103.023 Y98.673 E11.70776
G1 X103.023 Y109.979 E12.63068
G1 X102.997 Y110.173 E12.64673
G1 X102.930 Y110.335 E12.66100
G1 X102.824 Y110.474 E12.67528
G1 X102.685 Y110.580 E12.68956
G1 X102.523 Y110.647 E12.70383
G1 X102.329 Y110.673 E12.71988
G1 X101.989 Y110.673 E12.74756
G1 X101.796 Y110.647 E12.76350
G1 X101.635 Y110.580 E12.77774
G1 X101.496 Y110.474 E12.79204
G1 X101.389 Y110.335 E12.80635
G1 X101.322 Y110.174 E12.82059
G1 X101.297 Y109.980 E12.83653
G1 X101.297 Y97.012 E13.89517
G1 X101.321 Y96.826 E13.91048
G1 X101.388 Y96.665 E13.92465
G1 X101.495 Y96.525 E13.93908
G1 X101.636 Y96.418 E13.95351
G1 X101.795 Y96.352 E13.96756
G1 X101.964 Y96.329 E13.98151
G1 X102.477 Y96.327 E14.02341
G1 X102.477 Y59.327 E17.04382
G1 X107.523 Y59.327 E17.45570
G1 X107.523 Y96.327 E20.47611
G1 X108.036 Y96.329 E20.51801
G1 X108.205 Y96.352 E20.53196
G1 X108.364 Y96.418 E20.54601
G1 X108.505 Y96.525 E20.56043
G1 X108.612 Y96.665 E20.57487
G1 X108.679 Y96.826 E20.58904
G1 X108.690 Y96.914 E20.59634
G1 X108.151 Y97.363 F7800.000
G1 X106.394 Y97.544
G1 X105.466 Y97.544 F1678.759 E20.67219
G1 X106.394 Y96.616 E20.77947
G1 X106.394 Y95.689 E20.85531
G1 X104.539 Y97.544 E21.06985
G1 X103.612 Y97.544 E21.14569
G1 X106.394 Y94.762 E21.46748
G1 X106.394 Y93.834 E21.54332
G1 X103.606 Y96.622 E21.86575
G1 X103.606 Y95.695 E21.94159
G1 X106.394 Y92.907 E22.26403
G1 X106.394 Y91.980 E22.33987
G1 X103.606 Y94.767 E22.66230
G1 X103.606 Y93.840 E22.73814
G1 X106.394 Y91.052 E23.06057
G1 X106.394 Y90.125 E23.13641
G1 X103.606 Y92.913 E23.45885
G1 X103.606 Y91.985 E23.53469
G1 X106.394 Y89.198 E23.85712
G1 X106.394 Y88.270 E23.93296
G1 X103.606 Y91.058 E24.25539
G1 X103.606 Y90.131 E24.33123
G1 X106.394 Y87.343 E24.65366
G1 X106.394 Y86.416 E24.72951
G1 X103.606 Y89.203 E25.05194
G1 X103.606 Y88.276 E25.12778
G1 X106.394 Y85.488 E25.45021
G1 X106.394 Y84.561 E25.52605
G1 X103.606 Y87.349 E25.84848
G1 X103.606 Y86.421 E25.92433
G1 X106.394 Y83.634 E26.24676
G1 X106.394 Y82.706 E26.32260
G1 X103.606 Y85.494 E26.64503
G1 X103.606 Y84.567 E26.72087
G1 X106.394 Y81.779 E27.04330
G1 X106.394 Y80.852 E27.11914
G1 X103.606 Y83.639 E27.44158
G1 X103.606 Y82.712 E27.51742
G1 X106.394 Y79.924 E27.83985
G1 X106.394 Y78.997 E27.91569
G1 X103.606 Y81.785 E28.23812
G1 X103.606 Y80.858 E28.31396
G1 X106.394 Y78.070 E28.63640
G1 X106.394 Y77.142 E28.71224
G1 X103.606 Y79.930 E29.03467
G1 X103.606 Y79.003 E29.11051
G1 X106.394 Y76.215 E29.43294
G1 X106.394 Y75.288 E29.50878
G1 X103.606 Y78.076 E29.83121
G1 X103.606 Y77.148 E29.90706
G1 X106.394 Y74.360 E30.22949
G1 X106.394 Y73.433 E30.30533
G1 X103.606 Y76.221 E30.62776
G1 X103.606 Y75.294 E30.70360
G1 X106.394 Y72.506 E31.02603
G1 X106.394 Y71.578 E31.10188
G1 X103.606 Y74.366 E31.42431
G1 X103.606 Y73.439 E31.50015
G1 X106.394 Y70.651 E31.82258
G1 X106.394 Y69.724 E31.89842
G1 X103.606 Y72.512 E32.22085
G1 X103.606 Y71.584 E32.29669
G1 X106.394 Y68.797 E32.61913
G1 X106.394 Y67.869 E32.69497
G1 X103.606 Y70.657 E33.01740
G1 X103.606 Y69.730 E33.09324
G1 X106.394 Y66.942 E33.41567
G1 X106.394 Y66.015 E33.49151
G1 X103.606 Y68.802 E33.81395
G1 X103.606 Y67.875 E33.88979
G1 X106.394 Y65.087 E34.21222
G1 X106.394 Y64.160 E34.28806
G1 X103.606 Y66.948 E34.61049
G1 X103.606 Y66.020 E34.68633
G1 X106.394 Y63.233 E35.00876
G1 X106.394 Y62.305 E35.08461
G1 X103.606 Y65.093 E35.40704
G1 X103.606 Y64.166 E35.48288
G1 X106.394 Y61.378 E35.80531
G1 X106.388 Y60.456 E35.88070
G1 X103.606 Y63.238 E36.20249
G1 X103.606 Y62.311 E36.27833
G1 X105.461 Y60.456 E36.49286
G1 X104.534 Y60.456 E36.56870
G1 X103.606 Y61.384 E36.67598
G1 X103.606 Y60.456 E36.75183
G1 X107.854 Y109.823 F7800.000
G1 X107.777 Y108.324 F600.000 E36.96048
G1 X107.854 Y108.247 E36.97555
G1 X107.777 Y106.748 E37.18420
G1 X107.854 Y106.671 E37.19926
G1 X107.777 Y105.172 E37.40791
G1 X107.854 Y105.095 E37.42298
G1 X107.777 Y103.596 E37.63163
G1 X107.854 Y103.519 E37.64669
G1 X107.777 Y102.020 E37.85534
G1 X107.854 Y101.943 E37.87040
G1 X107.777 Y100.444 E38.07905
G1 X107.854 Y100.367 E38.09412
G1 X107.777 Y98.868 E38.30279
G1 X107.098 Y98.500 F7800.000
G1 X102.850 Y98.500
G1 X102.160 Y110.483
G1 X102.173 Y109.823
G1 X102.146 Y108.281 F600.000 E38.51619
G1 X102.173 Y108.254 E38.52140
G1 X102.146 Y106.712 E38.73480
G1 X102.173 Y106.685 E38.74001
G1 X102.146 Y105.143 E38.95340
G1 X102.173 Y105.117 E38.95862
G1 X102.146 Y103.574 E39.17201
G1 X102.173 Y103.548 E39.17722
G1 X102.146 Y102.006 E39.39062
G1 X102.173 Y101.979 E39.39583
G1 X102.146 Y100.437 E39.60923
G1 X102.173 Y100.410 E39.61444
G1 X102.147 Y98.868 E39.82786
G1 F1800.000 E37.82786
G1 Z1.400
G92 E0
G1 X101.951 Y98.018 F7800.000
G1 Z0.900
G1 F1800.000 E2.00000
G1 X101.951 Y96.982 F839.386 E2.08461
G1 X103.132 Y96.982 E2.18098
G1 X103.132 Y59.982 E5.20139
G1 X106.868 Y59.982 E5.50641
G1 X106.868 Y96.982 E8.52682
G1 X108.049 Y96.982 E8.62319
G1 X108.049 Y98.018 E8.70780
G1 X102.049 Y98.018 E9.19754
G1 X103.023 Y98.673 F7800.000
G1 X103.023 Y109.979 F600.000 E10.12046
G1 X102.997 Y110.173 E10.13651
G1 X102.930 Y110.335 E10.15078
G1 X102.824 Y110.474 E10.16506
G1 X102.685 Y110.580 E10.17933
G1 X102.523 Y110.647 E10.19361
G1 X102.329 Y110.673 E10.20965
G1 X101.988 Y110.673 E10.23742
G1 X101.796 Y110.647 E10.25329
G1 X101.635 Y110.581 E10.26751
G1 X101.496 Y110.474 E10.28183
G1 X101.389 Y110.335 E10.29615
G1 X101.322 Y110.174 E10.31037
G1 X101.297 Y109.981 E10.32624
G1 X101.297 Y97.005 E11.38549
G1 X101.320 Y96.825 E11.40031
G1 X101.387 Y96.666 E11.41441
G1 X101.493 Y96.527 E11.42868
G1 X101.636 Y96.416 E11.44347
G1 X101.803 Y96.350 E11.45813
G1 X101.935 Y96.332 E11.46903
G1 X102.477 Y96.327 E11.51327
G1 X102.477 Y59.327 E14.53367
G1 X107.523 Y59.327 E14.94555
G1 X107.523 Y96.327 E17.96596
G1 X108.065 Y96.332 E18.01020
G1 X108.197 Y96.350 E18.02109
G1 X108.364 Y96.416 E18.03575
G1 X108.507 Y96.527 E18.05054
G1 X108.613 Y96.666 E18.06482
G1 X108.680 Y96.825 E18.07892
G1 X108.703 Y97.005 E18.09373
G1 X108.703 Y109.981 E19.15298
G1 X108.678 Y110.174 E19.16886
G1 X108.611 Y110.335 E19.18307
G1 X108.504 Y110.474 E19.19739
G1 X108.365 Y110.581 E19.21171
G1 X108.204 Y110.647 E19.22593
G1 X108.012 Y110.673 E19.24181
G1 X107.621 Y110.673 E19.27365
G1 X107.427 Y110.647 E19.28969
G1 X107.265 Y110.580 E19.30397
G1 X107.126 Y110.474 E19.31825
G1 X107.020 Y110.335 E19.33252
G1 X106.953 Y110.173 E19.34680
G1 X106.927 Y109.979 E19.36284
G1 X106.927 Y98.673 E20.28577
G1 X103.121 Y98.673 E20.59649
G1 X102.368 Y98.673 F7800.000
G1 X103.606 Y97.544
